webroot/img/new-desgin/why_besa/icon-2.svg

<svg width="104" height="105" viewBox="0 0 104 105" fill="none" xmlns="http://www.w3.org/2000/svg">
<rect width="104" height="105" fill="#303030"/>
<g clip-path="url(#clip0_0_1)">
<rect width="1440" height="10519" transform="translate(-398 -1976)" fill="#FEFEFE"/>
<path d="M53.1408 89.2493C52.0358 89.2493 50.934 88.9763 49.959 88.44L47.801 87.2733C47.6134 87.1715 47.4477 87.0337 47.3134 86.8679C47.179 86.7021 47.0787 86.5114 47.018 86.3068C46.9574 86.1022 46.9376 85.8876 46.9599 85.6754C46.9821 85.4631 47.046 85.2574 47.1478 85.0698C47.2495 84.8822 47.3873 84.7165 47.5531 84.5822C47.7189 84.4478 47.9096 84.3474 48.1142 84.2868C48.3188 84.2261 48.5334 84.2064 48.7456 84.2286C48.9579 84.2509 49.1637 84.3147 49.3513 84.4165L51.5158 85.5865C52.2828 86.0058 53.2448 86.1098 54.0898 85.8628C54.414 85.7769 54.718 85.6276 54.9841 85.4234C55.2502 85.2192 55.4731 84.9642 55.64 84.6733C56.238 83.5813 56.0235 82.2618 55.471 81.6183C55.2094 81.3125 55.0706 80.9205 55.0814 80.5183C55.0922 80.116 55.2519 79.7321 55.5295 79.4408C56.0333 78.9175 56.8848 78.716 57.525 79.054L62.322 81.5663C63.791 82.3658 65.624 81.8945 66.3585 80.549C66.9305 79.4993 66.6315 78.1798 66.17 77.5135L61.7305 74.426C61.3898 74.1876 61.153 73.8282 61.0684 73.421C60.9838 73.0139 61.0579 72.5899 61.2755 72.2355C61.493 71.8805 61.839 71.6229 62.2415 71.5164C62.644 71.4099 63.0721 71.4626 63.4368 71.6635L71.8835 76.2785C72.1836 76.4463 72.5145 76.5514 72.8564 76.5878C73.1982 76.6241 73.5439 76.5907 73.8725 76.4898C74.6395 76.2545 75.2821 75.7252 75.66 75.0175C76.44 73.594 76.0273 72.0275 74.685 71.293L69.2965 67.7895C68.9486 67.5635 68.7003 67.213 68.6026 66.8099C68.5048 66.4067 68.5649 65.9814 68.7706 65.6211C68.9763 65.2609 69.312 64.9929 69.7089 64.8722C70.1057 64.7514 70.5338 64.7871 70.9053 64.9718L81.887 70.422C83.2813 71.1793 84.9388 70.63 85.7285 69.1935C86.0807 68.5081 86.1521 67.7126 85.9276 66.9754C85.7031 66.2383 85.2004 65.6175 84.526 65.2448C84.333 65.1459 84.1618 65.0094 84.0223 64.8434C83.8829 64.6773 83.7781 64.485 83.7142 64.2778C83.6502 64.0706 83.6284 63.8527 83.6499 63.637C83.6715 63.4212 83.736 63.2119 83.8397 63.0215C83.9434 62.8311 84.0841 62.6633 84.2536 62.5281C84.4231 62.3929 84.618 62.293 84.8267 62.2342C85.0355 62.1755 85.2538 62.1591 85.469 62.1861C85.6842 62.2131 85.8917 62.2828 86.0795 62.3913C89.024 63.9968 90.168 67.8253 88.582 70.7503C86.918 73.7858 83.3268 74.9103 80.3888 73.3048L79.2448 72.7393C79.4219 74.0645 79.1642 75.4114 78.5103 76.5775C77.7177 78.0403 76.3788 79.1303 74.7858 79.6098C74.0467 79.8288 73.2717 79.8993 72.5052 79.8173C71.7388 79.7353 70.9962 79.5024 70.3203 79.132L69.8978 78.9045C69.9595 79.9673 69.7613 81.082 69.2023 82.1058C67.6228 84.995 63.7715 86.0643 60.7815 84.4295L59.228 83.617C59.1785 84.5319 58.9265 85.4243 58.4903 86.23C58.1196 86.8965 57.6206 87.4829 57.0221 87.9554C56.4235 88.4278 55.7373 88.777 55.003 88.9828C54.3982 89.1601 53.771 89.2498 53.1408 89.2493ZM19.526 59.775C19.2718 59.7754 19.0211 59.7152 18.7948 59.5995L13.3933 56.876C13.2024 56.7805 13.0324 56.6482 12.8929 56.4867C12.7534 56.3252 12.6473 56.1377 12.5805 55.9351C12.5137 55.7324 12.4877 55.5185 12.5039 55.3057C12.5202 55.093 12.5783 54.8855 12.675 54.6953C12.7699 54.5038 12.9018 54.3332 13.0632 54.1932C13.2246 54.0532 13.4122 53.9467 13.6151 53.8799C13.818 53.8131 14.0322 53.7872 14.2452 53.8039C14.4582 53.8206 14.6657 53.8794 14.8558 53.977L20.2573 56.7005C20.5887 56.8613 20.8554 57.1304 21.0132 57.4632C21.1711 57.7961 21.2106 58.1728 21.1254 58.5312C21.0402 58.8896 20.8352 59.2082 20.5444 59.4343C20.2536 59.6605 19.8943 59.7807 19.526 59.775ZM32.5 38.6045C32.393 38.6048 32.2863 38.5939 32.1815 38.572L21.151 36.3913C20.2703 36.2158 19.6983 35.3643 19.8738 34.4835C20.0493 33.6028 20.904 33.0178 21.7815 33.2063L32.812 35.387C33.2126 35.4594 33.5714 35.6798 33.817 36.0044C34.0627 36.3291 34.1772 36.7343 34.1379 37.1395C34.0986 37.5447 33.9084 37.9203 33.6049 38.1917C33.3015 38.4631 32.9071 38.6105 32.5 38.6045Z" fill="url(#paint0_linear_0_1)"/>
<path d="M85.2605 65.4236C84.9876 65.4236 84.7192 65.3542 84.4805 65.2221L73.8302 59.3949L59.3125 50.3859C59.1307 50.274 58.9727 50.1275 58.8475 49.9546C58.7223 49.7817 58.6324 49.5859 58.5829 49.3783C58.5334 49.1706 58.5253 48.9553 58.559 48.7445C58.5928 48.5337 58.6677 48.3317 58.7795 48.1499C58.8913 47.9681 59.0379 47.81 59.2107 47.6849C59.3836 47.5597 59.5795 47.4698 59.7871 47.4203C59.9947 47.3708 60.2101 47.3627 60.4209 47.3964C60.6316 47.4301 60.8337 47.505 61.0155 47.6169L75.4617 56.5869L84.3765 61.4619C84.9355 59.5151 84.8932 58.0819 84.89 58.0656C84.8748 57.739 84.9585 57.4154 85.1301 57.1371C85.3017 56.8587 85.5533 56.6387 85.852 56.5056L89.2125 55.0106C89.4075 54.924 89.6177 54.8766 89.8311 54.8712C90.0444 54.8658 90.2568 54.9025 90.456 54.9791C90.6551 55.0558 90.8373 55.1709 90.992 55.318C91.1466 55.465 91.2709 55.6411 91.3575 55.8361C91.4441 56.0312 91.4915 56.2414 91.4969 56.4547C91.5023 56.6681 91.4656 56.8804 91.389 57.0796C91.3123 57.2788 91.1972 57.4609 91.0502 57.6156C90.9031 57.7703 90.727 57.8945 90.532 57.9811L88.101 59.0634C87.9482 60.919 87.4926 62.737 86.7522 64.4454C86.6261 64.7361 86.4177 64.9837 86.1526 65.1575C85.8876 65.3313 85.5775 65.4238 85.2605 65.4236Z" fill="url(#paint1_linear_0_1)"/>
<path d="M39.3477 56.7559C37.063 56.7559 34.8595 55.7614 33.059 53.8992C32.8564 53.6889 32.7139 53.4281 32.6464 53.144C32.579 52.8598 32.589 52.5628 32.6755 52.2839C33.228 50.5062 33.826 48.8454 34.3785 47.3082C35.269 44.8252 36.0425 42.6834 36.2732 41.0292C36.3046 40.8029 36.3834 40.5858 36.5044 40.3921C36.6253 40.1983 36.7858 40.0322 36.9752 39.9047L38.6425 38.7672C42.4027 36.1802 48.698 31.8447 52.1202 30.4342C54.1677 29.5924 64.9902 31.6789 73.7067 33.5834C73.9372 33.6322 74.1538 33.7322 74.3405 33.8759C74.711 34.1554 75.0522 34.4447 75.374 34.7404L81.6042 33.0244C81.81 32.9676 82.0248 32.9519 82.2366 32.9782C82.4484 33.0045 82.6529 33.0722 82.8385 33.1776C83.0241 33.2829 83.1872 33.4237 83.3183 33.5921C83.4495 33.7604 83.5462 33.9529 83.603 34.1587C83.6598 34.3644 83.6754 34.5792 83.6492 34.791C83.6229 35.0028 83.5551 35.2073 83.4498 35.3929C83.3445 35.5785 83.2036 35.7416 83.0353 35.8727C82.867 36.0039 82.6745 36.1006 82.4687 36.1574L75.348 38.1204C75.0692 38.1983 74.7747 38.1999 74.4951 38.125C74.2155 38.0501 73.9612 37.9015 73.7587 37.6947C73.4077 37.3371 73.0378 36.9986 72.6505 36.6807C64.2265 34.8509 54.769 33.1804 53.2545 33.4729C50.2547 34.7177 43.8977 39.0954 40.482 41.4452L39.3672 42.2057C39.013 44.0192 38.2752 46.0732 37.4367 48.4099C37.0012 49.6222 36.5365 50.9124 36.088 52.2774C37.5472 53.4539 38.9512 53.5839 39.91 53.4734C41.3432 53.3012 42.6757 52.4334 43.3875 51.2147C43.9465 50.2527 44.7005 48.3384 45.2172 46.5574C45.3054 46.2544 45.4799 45.9837 45.7195 45.7782C45.959 45.5727 46.2531 45.4415 46.566 45.4004C47.5605 45.2672 51.5157 44.4319 53.8557 43.8762C54.0634 43.8269 54.2787 43.8189 54.4894 43.8529C54.7001 43.8868 54.902 43.9619 55.0837 44.0738C55.2654 44.1858 55.4232 44.3324 55.5482 44.5054C55.6732 44.6784 55.7629 44.8743 55.8122 45.0819C55.8615 45.2895 55.8695 45.5049 55.8355 45.7155C55.8016 45.9262 55.7265 46.1282 55.6146 46.3099C55.5026 46.4915 55.356 46.6494 55.183 46.7744C55.01 46.8994 54.8141 46.9891 54.6065 47.0384C52.8287 47.4609 49.7997 48.1207 48.0382 48.4489C47.5637 49.9114 46.8845 51.6729 46.1987 52.8494C45.4951 54.0401 44.493 55.0266 43.2916 55.7117C42.0901 56.3968 40.7308 56.7567 39.3477 56.7559ZM44.3755 89.0349C42.9325 89.0349 41.5805 88.4727 40.5665 87.4554L39.507 86.3862C39.0103 85.886 38.6173 85.2925 38.3507 84.64C38.0841 83.9874 37.9491 83.2886 37.9535 82.5837C37.9567 81.1439 38.519 79.7984 39.5362 78.7909L41.678 76.6849C43.706 74.6764 47.2647 74.6927 49.2732 76.7272L50.3262 77.7834C52.4127 79.8959 52.3965 83.3052 50.297 85.3852L48.1552 87.4912C47.1477 88.4824 45.8055 89.0349 44.3755 89.0349ZM45.4577 78.3847C44.8982 78.3823 44.3605 78.602 43.9627 78.9957L41.8242 81.0984C41.6283 81.2942 41.4728 81.5268 41.3669 81.7828C41.2609 82.0387 41.2065 82.3131 41.2067 82.5902C41.2067 83.1622 41.4212 83.6952 41.8177 84.0949L42.874 85.1609C43.2786 85.5448 43.8148 85.7594 44.3726 85.7606C44.9304 85.7618 45.4675 85.5496 45.8737 85.1674L48.0122 83.0647C48.4094 82.6667 48.6327 82.1277 48.6333 81.5654C48.6339 81.0032 48.4118 80.4637 48.0155 80.0649L46.9657 79.0119C46.7693 78.8116 46.5345 78.6529 46.2754 78.5451C46.0164 78.4374 45.7383 78.3828 45.4577 78.3847ZM21.9017 69.5544C20.4587 69.5544 19.1035 68.9922 18.0895 67.9717L17.0332 66.9089C16.0317 65.8962 15.4724 64.5279 15.4779 63.1036C15.4834 61.6793 16.0532 60.3153 17.0625 59.3104L19.2042 57.2044C21.2322 55.1992 24.7845 55.2089 26.7962 57.2402L27.8525 58.3062C28.86 59.3234 29.4092 60.6722 29.4027 62.1119C29.4015 62.817 29.2607 63.5148 28.9885 64.1652C28.7163 64.8156 28.3181 65.4056 27.8167 65.9014L25.6782 68.0042C25.1817 68.4983 24.5925 68.8896 23.9445 69.1557C23.2964 69.4217 22.6023 69.5572 21.9017 69.5544ZM22.984 58.9042C22.4236 58.9023 21.8851 59.1219 21.4857 59.5152L19.3472 61.6179C18.9504 62.0158 18.7271 62.5545 18.7258 63.1164C18.7246 63.6784 18.9457 64.218 19.3407 64.6177L20.3937 65.6772C20.7968 66.0634 21.3328 66.2802 21.891 66.2826C22.4493 66.285 22.9871 66.0729 23.3935 65.6902L25.5352 63.5842C25.9317 63.1942 26.1495 62.6644 26.1527 62.0957C26.156 61.5269 25.9415 60.9939 25.545 60.5942L24.4887 59.5282C24.2925 59.3287 24.0582 59.1707 23.7997 59.0635C23.5412 58.9563 23.2638 58.9021 22.984 58.9042Z" fill="url(#paint2_linear_0_1)"/>
<path d="M27.4853 78.0499C26.039 78.0499 24.6838 77.4877 23.673 76.4607L22.6168 75.3979C22.1193 74.9001 21.7256 74.3085 21.4584 73.6575C21.1911 73.0065 21.0557 72.3089 21.06 71.6052C21.0597 70.8981 21.2 70.1981 21.4729 69.5458C21.7457 68.8936 22.1456 68.3021 22.6493 67.8059L26.9035 63.5842C28.9348 61.5692 32.4805 61.5854 34.4988 63.6167L35.555 64.6859C36.5625 65.6999 37.1118 67.0487 37.1053 68.4852C37.1053 69.1912 36.9647 69.8901 36.6919 70.5413C36.419 71.1925 36.0193 71.7828 35.516 72.2779L31.265 76.4932C30.2575 77.4974 28.912 78.0499 27.4853 78.0499ZM30.6833 65.2807C30.4065 65.2787 30.1322 65.3316 29.8761 65.4365C29.62 65.5414 29.3873 65.6961 29.1915 65.8917L24.9373 70.1134C24.7392 70.3086 24.5816 70.541 24.4735 70.7972C24.3654 71.0535 24.309 71.3286 24.3075 71.6067C24.306 71.8848 24.3594 72.1604 24.4647 72.4178C24.57 72.6752 24.725 72.9093 24.921 73.1067L25.9805 74.1727C26.3834 74.558 26.9187 74.7741 27.4762 74.7766C28.0336 74.779 28.5708 74.5675 28.977 74.1857L33.2313 69.9672C33.4301 69.7718 33.5877 69.5385 33.6949 69.2812C33.8021 69.0239 33.8566 68.7477 33.8553 68.4689C33.8588 68.1918 33.8069 67.9167 33.7025 67.66C33.5982 67.4032 33.4434 67.1699 33.2475 66.9739L32.1913 65.9047C31.9935 65.7063 31.7585 65.549 31.4996 65.4419C31.2408 65.3348 30.9634 65.28 30.6833 65.2807Z" fill="url(#paint3_linear_0_1)"/>
<path d="M35.932 83.5422C35.2222 83.5447 34.5191 83.4054 33.8639 83.1325C33.2087 82.8596 32.6146 82.4585 32.1165 81.9529L31.0635 80.8869C30.5661 80.3884 30.1724 79.7963 29.9052 79.1447C29.638 78.4932 29.5026 77.7951 29.5068 77.0909C29.51 75.6512 30.0723 74.3057 31.0895 73.2982L34.2908 70.1359C36.322 68.1242 39.8743 68.1404 41.886 70.1749L42.939 71.2377C45.019 73.3372 45.0028 76.7432 42.9098 78.8297L39.7118 81.9919C38.7043 82.9897 37.362 83.5422 35.932 83.5422ZM38.0705 71.8324C37.7939 71.8312 37.5197 71.8845 37.2638 71.9893C37.0078 72.0942 36.775 72.2485 36.5788 72.4434L33.3775 75.6057C32.9778 76.0022 32.76 76.5319 32.7568 77.1007C32.7535 77.6694 32.9713 78.1992 33.3678 78.5957L34.4273 79.6649C34.8297 80.0507 35.3648 80.2674 35.9223 80.2705C36.4797 80.2735 37.0171 80.0626 37.4238 79.6812L40.6217 76.5189C41.019 76.1215 41.2429 75.583 41.2448 75.0211C41.2466 74.4591 41.0261 73.9193 40.6315 73.5192L39.5785 72.4564C39.3816 72.2569 39.1467 72.0988 38.8877 71.9917C38.6287 71.8845 38.3508 71.8303 38.0705 71.8324ZM91.9133 63.5904C91.5768 63.5898 91.2488 63.4847 90.9746 63.2897C90.7004 63.0946 90.4935 62.8193 90.3825 62.5017L79.8915 32.5334C79.7536 32.1386 79.7732 31.7057 79.9463 31.3249C80.1195 30.9442 80.4327 30.6448 80.821 30.4892L98.475 23.4139C98.8728 23.264 99.3135 23.2759 99.7027 23.4471C100.092 23.6184 100.398 23.9353 100.556 24.3299C100.715 24.7245 100.712 25.1654 100.549 25.558C100.386 25.9506 100.075 26.2636 99.684 26.4299L83.4698 32.9267L92.8948 59.8562L98.8 57.6299C98.9997 57.5548 99.2123 57.5198 99.4256 57.5268C99.6389 57.5339 99.8487 57.5828 100.043 57.671C100.237 57.7591 100.412 57.8846 100.558 58.0404C100.704 58.1962 100.818 58.3792 100.893 58.5789C100.968 58.7787 101.003 58.9913 100.996 59.2045C100.989 59.4178 100.94 59.6276 100.852 59.822C100.764 60.0163 100.638 60.1914 100.483 60.3373C100.327 60.4831 100.144 60.5968 99.944 60.6719L92.482 63.4832C92.3009 63.5546 92.1079 63.591 91.9133 63.5904ZM11.2743 63.4864C11.0985 63.487 10.9239 63.4584 10.7575 63.4019L4.33225 61.2504C4.12735 61.1847 3.93755 61.0789 3.77387 60.9392C3.61019 60.7995 3.47589 60.6287 3.37875 60.4367C3.28162 60.2446 3.2236 60.0352 3.20805 59.8206C3.19249 59.606 3.21973 59.3904 3.28816 59.1864C3.3566 58.9824 3.46488 58.794 3.60671 58.6321C3.74854 58.4703 3.92111 58.3382 4.11439 58.2436C4.30767 58.149 4.51781 58.0937 4.73263 58.081C4.94744 58.0683 5.16265 58.0983 5.36575 58.1694L10.27 59.8107L19.7275 32.7967L4.4265 26.3487C4.22262 26.2711 4.03646 26.1532 3.87912 26.002C3.72178 25.8509 3.59648 25.6696 3.51069 25.469C3.42491 25.2684 3.3804 25.0526 3.37981 24.8345C3.37922 24.6163 3.42257 24.4002 3.50727 24.1992C3.59197 23.9981 3.71628 23.8162 3.87281 23.6642C4.02933 23.5122 4.21485 23.3933 4.41831 23.3146C4.62178 23.2359 4.83901 23.1989 5.05706 23.2059C5.27512 23.2129 5.48952 23.2638 5.6875 23.3554L22.3925 30.3982C22.7732 30.5593 23.0784 30.8591 23.2462 31.2369C23.414 31.6147 23.4318 32.0422 23.296 32.4327L12.805 62.4009C12.6938 62.7182 12.4868 62.9931 12.2126 63.1876C11.9383 63.3821 11.6104 63.4865 11.2743 63.4864Z" fill="url(#paint4_linear_0_1)"/>
</g>
<defs>
<linearGradient id="paint0_linear_0_1" x1="19.6924" y1="38.2935" x2="64.6964" y2="115.747" gradientUnits="userSpaceOnUse">
<stop stop-color="#007BC4"/>
<stop offset="1" stop-color="#0B4C97"/>
</linearGradient>
<linearGradient id="paint1_linear_0_1" x1="61.6256" y1="49.0246" x2="73.8356" y2="77.0467" gradientUnits="userSpaceOnUse">
<stop stop-color="#007BC4"/>
<stop offset="1" stop-color="#0B4C97"/>
</linearGradient>
<linearGradient id="paint2_linear_0_1" x1="21.8641" y1="35.6127" x2="72.5353" y2="109.463" gradientUnits="userSpaceOnUse">
<stop stop-color="#007BC4"/>
<stop offset="1" stop-color="#0B4C97"/>
</linearGradient>
<linearGradient id="paint3_linear_0_1" x1="22.5628" y1="63.5415" x2="36.9191" y2="81.672" gradientUnits="userSpaceOnUse">
<stop stop-color="#007BC4"/>
<stop offset="1" stop-color="#0B4C97"/>
</linearGradient>
<linearGradient id="paint4_linear_0_1" x1="12.3634" y1="28.7167" x2="56.4613" y2="118.537" gradientUnits="userSpaceOnUse">
<stop stop-color="#007BC4"/>
<stop offset="1" stop-color="#0B4C97"/>
</linearGradient>
<clipPath id="clip0_0_1">
<rect width="1440" height="10519" fill="white" transform="translate(-398 -1976)"/>
</clipPath>
</defs>
</svg>

<svg width="104" height="105" fill="none" xmlns="http://www.w3.org/2000/svg"><path fill="#303030" d="M0 0h104v105H0z"/><g clip-path="url(#a)"><path fill="#FEFEFE" d="M-398-1976h1440V8543H-398z"/><path d="M53.14 89.25a6.615 6.615 0 0 1-3.181-.81l-2.158-1.167a1.625 1.625 0 0 1 1.55-2.856l2.165 1.17c.767.419 1.729.523 2.574.276a2.536 2.536 0 0 0 1.55-1.19c.598-1.092.383-2.411-.169-3.055a1.625 1.625 0 0 1 .059-2.177c.503-.523 1.355-.725 1.995-.387l4.797 2.512c1.469.8 3.302.328 4.037-1.017.572-1.05.273-2.37-.189-3.036l-4.44-3.087a1.632 1.632 0 0 1-.454-2.19 1.619 1.619 0 0 1 2.16-.573l8.447 4.615a2.545 2.545 0 0 0 1.99.212 3.036 3.036 0 0 0 1.787-1.472c.78-1.424.367-2.99-.975-3.725l-5.389-3.504a1.625 1.625 0 0 1 1.61-2.817l10.981 5.45c1.394.757 3.052.208 3.841-1.228a2.964 2.964 0 0 0-1.202-3.95 1.627 1.627 0 0 1-.686-2.222 1.626 1.626 0 0 1 2.24-.63c2.944 1.605 4.088 5.433 2.502 8.358-1.664 3.036-5.255 4.16-8.193 2.555l-1.144-.566a6.175 6.175 0 0 1-.735 3.838 6.302 6.302 0 0 1-3.724 3.033 5.84 5.84 0 0 1-4.466-.478l-.422-.228a5.931 5.931 0 0 1-.696 3.202c-1.58 2.889-5.43 3.958-8.42 2.324l-1.554-.813a6.19 6.19 0 0 1-.738 2.613 5.774 5.774 0 0 1-3.487 2.753 6.601 6.601 0 0 1-1.862.266ZM19.527 59.774a1.6 1.6 0 0 1-.731-.175l-5.402-2.724a1.617 1.617 0 0 1-.718-2.18 1.612 1.612 0 0 1 2.18-.719l5.402 2.724a1.619 1.619 0 0 1-.731 3.074ZM32.5 38.605c-.107 0-.214-.011-.319-.033l-11.03-2.18a1.622 1.622 0 0 1-1.277-1.909c.175-.88 1.03-1.465 1.908-1.277l11.03 2.181a1.622 1.622 0 0 1-.312 3.218Z" fill="url(#b)"/><path d="M85.26 65.424c-.272 0-.54-.07-.78-.202l-10.65-5.827-14.517-9.01a1.627 1.627 0 0 1 .474-2.965 1.626 1.626 0 0 1 1.229.197l14.446 8.97 8.914 4.875c.56-1.947.517-3.38.514-3.396a1.625 1.625 0 0 1 .962-1.56l3.36-1.495a1.625 1.625 0 0 1 1.32 2.97l-2.431 1.082a17.054 17.054 0 0 1-1.349 5.382 1.625 1.625 0 0 1-1.492.979Z" fill="url(#c)"/><path d="M39.348 56.756c-2.285 0-4.489-.995-6.289-2.857a1.632 1.632 0 0 1-.383-1.615c.552-1.778 1.15-3.439 1.703-4.976.89-2.483 1.663-4.625 1.894-6.279a1.624 1.624 0 0 1 .702-1.124l1.667-1.138c3.76-2.587 10.056-6.922 13.478-8.333 2.048-.842 12.87 1.245 21.587 3.15.23.048.447.148.634.292.37.28.711.569 1.033.864l6.23-1.716a1.624 1.624 0 1 1 .865 3.133l-7.121 1.963a1.616 1.616 0 0 1-1.59-.425c-.35-.358-.72-.696-1.108-1.014-8.424-1.83-17.881-3.5-19.396-3.208-3 1.245-9.356 5.622-12.772 7.972l-1.115.76c-.354 1.814-1.092 3.868-1.93 6.205-.436 1.212-.9 2.502-1.349 3.867 1.46 1.177 2.863 1.307 3.822 1.196 1.433-.172 2.766-1.04 3.478-2.258.559-.962 1.313-2.877 1.83-4.658a1.625 1.625 0 0 1 1.348-1.157c.994-.133 4.95-.968 7.29-1.524a1.624 1.624 0 0 1 1.759 2.434 1.626 1.626 0 0 1-1.009.728c-1.777.423-4.806 1.083-6.568 1.41-.474 1.463-1.153 3.225-1.84 4.401a7.952 7.952 0 0 1-6.85 3.907Zm5.028 32.279a5.34 5.34 0 0 1-3.81-1.58l-1.059-1.069a5.35 5.35 0 0 1-1.553-3.802 5.314 5.314 0 0 1 1.582-3.793l2.142-2.106c2.028-2.009 5.587-1.992 7.595.042l1.053 1.056c2.087 2.113 2.07 5.522-.029 7.602l-2.142 2.106a5.36 5.36 0 0 1-3.78 1.544Zm1.082-10.65a2.112 2.112 0 0 0-1.495.61l-2.139 2.103a2.106 2.106 0 0 0-.617 1.492c0 .572.214 1.105.61 1.505l1.057 1.066a2.184 2.184 0 0 0 3 .006l2.138-2.102a2.125 2.125 0 0 0 .004-3l-1.05-1.053a2.092 2.092 0 0 0-1.508-.627Zm-23.556-8.83a5.338 5.338 0 0 1-3.813-1.583l-1.056-1.063a5.382 5.382 0 0 1 .03-7.599l2.141-2.106c2.028-2.005 5.58-1.995 7.592.036l1.056 1.066a5.33 5.33 0 0 1 1.55 3.806 5.342 5.342 0 0 1-1.585 3.79l-2.139 2.102a5.326 5.326 0 0 1-3.776 1.55Zm1.082-10.65a2.125 2.125 0 0 0-1.498.61l-2.139 2.103a2.13 2.13 0 0 0-.006 3l1.053 1.06a2.178 2.178 0 0 0 3 .012l2.141-2.106c.397-.39.614-.92.618-1.488a2.096 2.096 0 0 0-.608-1.502l-1.056-1.066a2.088 2.088 0 0 0-1.505-.624Z" fill="url(#d)"/><path d="M27.485 78.05a5.307 5.307 0 0 1-3.812-1.59l-1.056-1.062a5.32 5.32 0 0 1-1.557-3.793 5.33 5.33 0 0 1 1.59-3.8l4.254-4.22c2.03-2.016 5.576-2 7.595.032l1.056 1.069a5.316 5.316 0 0 1 1.55 3.8 5.321 5.321 0 0 1-1.589 3.792l-4.251 4.215a5.323 5.323 0 0 1-3.78 1.557Zm3.198-12.77a2.09 2.09 0 0 0-1.491.612l-4.255 4.221a2.113 2.113 0 0 0-.016 2.994l1.06 1.066a2.178 2.178 0 0 0 2.996.013l4.254-4.219a2.088 2.088 0 0 0 .624-1.498 2.078 2.078 0 0 0-.607-1.495l-1.057-1.07a2.122 2.122 0 0 0-1.508-.623Z" fill="url(#e)"/><path d="M35.932 83.542a5.33 5.33 0 0 1-3.816-1.59l-1.052-1.065a5.33 5.33 0 0 1-1.557-3.796 5.314 5.314 0 0 1 1.582-3.793l3.202-3.162c2.031-2.012 5.583-1.996 7.595.039l1.053 1.063c2.08 2.1 2.064 5.505-.03 7.592l-3.197 3.162a5.338 5.338 0 0 1-3.78 1.55Zm2.139-11.71a2.105 2.105 0 0 0-1.492.611l-3.202 3.163c-.4.396-.617.926-.62 1.495a2.08 2.08 0 0 0 .61 1.495l1.06 1.069a2.178 2.178 0 0 0 2.997.016l3.198-3.162a2.129 2.129 0 0 0 .01-3l-1.053-1.063a2.096 2.096 0 0 0-1.508-.624Zm53.842-8.242a1.625 1.625 0 0 1-1.53-1.088L79.89 32.533a1.625 1.625 0 0 1 .93-2.044l17.654-7.075a1.625 1.625 0 0 1 1.209 3.016L83.47 32.927l9.425 26.93L98.8 57.63a1.626 1.626 0 0 1 1.144 3.042l-7.462 2.811a1.538 1.538 0 0 1-.569.107Zm-80.639-.104a1.59 1.59 0 0 1-.516-.084L4.332 61.25a1.624 1.624 0 1 1 1.034-3.08l4.904 1.64 9.457-27.013-15.3-6.448a1.623 1.623 0 0 1-.554-2.685 1.624 1.624 0 0 1 1.814-.309l16.705 7.043a1.628 1.628 0 0 1 .904 2.035L12.805 62.4a1.622 1.622 0 0 1-1.53 1.085Z" fill="url(#f)"/></g><defs><linearGradient id="b" x1="19.692" y1="38.294" x2="64.696" y2="115.747" gradientUnits="userSpaceOnUse"><stop stop-color="#007BC4"/><stop offset="1" stop-color="#0B4C97"/></linearGradient><linearGradient id="c" x1="61.626" y1="49.025" x2="73.836" y2="77.047" gradientUnits="userSpaceOnUse"><stop stop-color="#007BC4"/><stop offset="1" stop-color="#0B4C97"/></linearGradient><linearGradient id="d" x1="21.864" y1="35.613" x2="72.535" y2="109.463" gradientUnits="userSpaceOnUse"><stop stop-color="#007BC4"/><stop offset="1" stop-color="#0B4C97"/></linearGradient><linearGradient id="e" x1="22.563" y1="63.541" x2="36.919" y2="81.672" gradientUnits="userSpaceOnUse"><stop stop-color="#007BC4"/><stop offset="1" stop-color="#0B4C97"/></linearGradient><linearGradient id="f" x1="12.363" y1="28.717" x2="56.461" y2="118.537" gradientUnits="userSpaceOnUse"><stop stop-color="#007BC4"/><stop offset="1" stop-color="#0B4C97"/></linearGradient><clipPath id="a"><path fill="#fff" transform="translate(-398 -1976)" d="M0 0h1440v10519H0z"/></clipPath></defs></svg>
